X: 10482
M: 6/8
L: 1/8
K: D
d2d B2G | F2G A2=c | B2d ^ceg | (f3 e2)A |\
d2d f2d | B2B e2d | c2c BAB | A2z z2A |\
e2c A2A | f2d A2A |
c2d g2f | (f3 e2)A |\
(A^G)A (Bcd) | (efg) (af)d | B2e d2c | d2z z2DF |\
e3 e3 | ea2- a2e | ece ece | eg2- g2(a/g/) |\
fdz z2f | eAz z2g | fdz z2f | eAz z2A |\
dff dfz | d2z d2z |
dff dff | faz HzA/G/F/E/ |\
f2f ede | a3 g3 | f2f ede | d3 z2z |]


